X:29
T:Bourre d'Aumont
R:Bourre
O:France
A:Auvergne
Z:<anamnese@laposte.net>
N:tagafolk.abc
M:3/8
L:1/8
Q:3/8=110
K:C
cdg | f2e | d2e | cB2 | cdg | f2e | dec | d3 ::
gfe | def | g>ag/f/ | ec2 | efe | ded | c2 B | c3 :|
